X:1
T:Io felice pastore
T:Madalena Casulana
T:Source : Secondo libro de madrigali a quattro voci---Venetia---G.Scotto---1570. Editor : André Vierendeels (04/09/17).
T:Io felice pastore
T:Quarta parte
T:©
T:©
T:©
T:©
C:Madalena Casulana
Z:©
%%score [ 1 [ 2 3 ] 4 ]
L:1/8
Q:1/4=120
M:4/4
K:C
V:1 treble nm="Soprano" snm="S"
V:2 treble nm="Alto 1" snm="A 1"
V:3 treble nm="Alto 2" snm="A 2"
V:4 treble-8 nm="Tenor" snm="T"
V:1
 d8 | G4 e4- | e2 e2 d4 | B4 B2 B2 | e2 c3 c c2 | c4 A2 A2 | f2 d2 e2 e2 | E4 D2 d2- | d2 g2 ^f4 | %9
w: Io|fe- li-|* ce pa-|sto- re, quel|di fau- sto'et a-|me- no, non|pa- rea star' in|ter- ra ma|_ nel cie-|
 g4 z2 d2 | d2 d2 g4- | g2 f2 e4 | d2 G2 B2 ^c2 | d4 e2 AB |"^-natural" cdec d4 | c2 f2 e2 d2 | %16
w: lo, e|di ce- lest'|_ ar- do-|re, e d'a- mo-|ro- so ze- *||lo, e d'a- mo-|
 e2 A2 A4 | A2 c2 c2 c2- | cc d2 d4- | d2 A2 A2 F2 | E4 E2 z2 | z2 e4 B2 | ^c2 e2 d2 d2- | %23
w: ro- so ze-|lo, sen- ti l'al-|* ma'in- fiam- ma-|* ta ve- nir'|me- no,|in- di|non piu de- si-|
"^#" dc/B/ A2 B2 d2 | d3 d f2 e2- | e2 d2 e2 B2- | B2 ^c2 d2 Bc | A4 c2 c2- | c2 f4 d2 | %29
w: * * * * o, mi|pors' un pic- ciol|_ ri- o, ch'el|_ mio no- bil te-|so- ro, ho-|* no- ra|
 g3 f ed c2- | c2 c2 c2 B2 | c2 d2 e4 | A8 |] %33
w: cin- * * * *|* to di sa-|crat' al ho-|ro.|
V:2
 G8 | G4 G4 | G2 c2 A4 | D2 D2 G3 A | B2 A3 A A2 | G4 C2 c2 | A2 G2 G3 G | C4 B,2 B2- | B2 d2 d4 | %9
w: Io|fe- li-|ce pa- sto-|re, quel di _|_ fau- sto'et a-|me- no, non|pa- rea star' in|ter- ra ma|_ nel cie-|
 d4 z2 B2 | A2 d2 c4- | c2 c2 c4 | B4 z2 G2 |"^-natural" A2 B4 c2 | F2 c3 B/A/ B2 | c2 A2 c2 B2 | %16
w: lo, e|di ce- lest'|_ ar- do-|re, e|d'a- mo- ro-|so ze- * * *|lo, e d'a- mo-|
 A2 F2 E4 | E2 A2 A2 G2- | GG B2 A4 |"^#" F4 E2 D2 | B,4 B,2 z2 | z2 ^G4 G2 |"^-natural" A2 A4 G2 | %23
w: ro- so ze-|lo, sen- ti l'al-|* ma'in- fiam- ma-|ta ve- nir'|me- no,|in- di|non piu de-|
 ^F4 G2 B2 | B3 B c2 c2- | c2 A2 ^G2 G2- | G2 A2 A2 DE | C4 G2 G2 | A4 A2 B2- | B2 c2 G2 G2 | %30
w: si- o, mi|pors' un pic- ciol|_ ri- o, ch'el|_ mio no- bil te-|so- ro, ho-|no- ra cin-|* to di sa-|
 A3 G FE D2 | A,2 D4 ^C2 | D8 |] %33
w: crat'- * * * *|al bo- *|ro.|
V:3
 B,8 | D4 C4- | C2 G2 ^F4 | G4 D2 D2 | G2 F3 F F2 | E4 F2 F2 | C2 B,2 C3 C | G,2 G,2 G4- | %8
w: Io|fe- li-|* ce pa-|sto- re, quel|di fau- sto'et a-|me- no, non|pa- rea star' in|ter- ra ma|
 G2 B2 A4 | B4 z2 G2 | ^F2 G2 E4- | E2 A2 G4 | G2 D2 E4 | ^F2 G4 F2 | A4 G4 | z2 C2 C2 G2 | %16
w: _ nel cie-|lo, e|di ce- lest'|_ ar- do-|re, e s'a-|mo- ro- so|ze- lo,|e d'a- mo-|
 E2 D2 ^C4 | ^C2 F2 F2 E2- | EE G2 ^F3 G | A2 D2 C2 A,2 | ^G,4 G,2 z2 | z2 B,4 E2- | %22
w: ro- so ze-|lo, sen- ti l'al|_ ma'in- fiam ma- *|* ta ve- nir|me- no,|in- di|
 E2 ^C2 D2 B,2 | A,2 D4 G2 | G3 G A2 A2 | A,4 B,2 E2- | E2 E2 ^F2 GG | F4 E4 | z2 C2 D4 | %29
w: _ non piu de-|si- o, mi|pors' un pic- ciol|ri- o, ch'el|_ mio no- bil te-|so- ro,|ho- no-|
 D2 E4 E2 | F3 G A2 G2 | A2 A2 G4 | ^F8 |] %33
w: ra cin- to|di _ _ sa-|crat'- al bo-|ro.|
V:4
 G8 | G4 C4- | C2 C2 D4 | G4 G2 G2 | E2 F3 F F2 | C4 F2 F2 | F2 G2 C2 C2 | C4 G,4 | G2 G2 d4 | %9
w: Io|fe- li-|* ce pa-|sto- re, quel|di fau- sto'et a-|me- no, non|pa- rea star' in|ter- ra|ma nel cie-|
 G4 z2 G2 | d2 B2 c4- | c2 A2 c4 | G4 z4 | z8 | z4 z2 G2 | A6 B2 | ^c2 d2 A4 | A2 F2 F2 c2- | %18
w: lo, e|di ce- lest'|_ ar- do-|re,||e|d'a- mo-|ro- so ze-|lo, sen- ti l'al-|
 cc G2 d4 | D4 A2 D2 | E4 E2 z2 | z2 E4 E2 |"^-natural" A4 ^F2 G2 | D4 G2 G2 | G3 G F2 A2 | %25
w: * ma'in- fiam- ma-|ta ve- nir|me- no,|in di|non piu de-|si- o, mi|pors' un pic- ciol|
 F4 E2 E2- | E2 A2 D2 GC |"^-natural" F4 C2 C2 | F4 D2 G2- | G2 C2 c3 B | AG F4 G2 | F2 F2 E4 | %32
w: ri- o, ch'el|_ mio no- bil te-|so- ro, ho-|no- ra cin-|to di sa- *||crat' al bo-|
 D8 |] %33
w: ro.|

